X:2
T:Easy To Love
C:Cole Porter
L:1/4
M:C
I:linebreak $
K:Ab
"Bbm" z"Bbm6" F3 |"Cø" B,3"B7" C |"Bbm" D2 C D |"A7" G3 F |$"Ab" E2 =D E |"Bbm" B =A _A G |
"Cm" F2 =E F Ox/||"B7" e4 |$"Bbm" e4 |"Eb4" F2 G2 |"Ab" c c c2 |"Ao" z4 |$
"Bbø" z e E E |"Dbø" (3=E =E =E (3F F F |"Cm" G G G2 |"Bo""_D.C. al Coda" z4 ||$
Ox/"F7" f3 c |"Bbm" e2"Cm" B2 |"Dbm" d2"Gb7" A2 |"Cm" c2 G A |$"Bo" B =A _A G |"Bbm" F4 |
"A7" c2 (3c =B B |"Ab6" A4 | z4 |]

